public/assets/img/svg/embed/stat-notices-icon-email.svg

<?xml version="1.0" encoding="UTF-8" standalone="no"?>
<svg width="43px" height="33px" viewBox="0 0 43 33" version="1.1" xmlns="http://www.w3.org/2000/svg" xmlns:xlink="http://www.w3.org/1999/xlink" xmlns:sketch="http://www.bohemiancoding.com/sketch/ns">
    <!-- Generator: Sketch 3.3.2 (12043) - http://www.bohemiancoding.com/sketch -->
    <title>Group</title>
    <desc>Created with Sketch.</desc>
    <defs></defs>
    <g id="Notices" stroke="none" stroke-width="1" fill="none" fill-rule="evenodd" sketch:type="MSPage">
        <g id="1.0-Canvas-view-Copy-5" sketch:type="MSArtboardGroup" transform="translate(-1160.000000, -1432.000000)" fill="#000000">
            <g id="Group" sketch:type="MSLayerGroup" transform="translate(1160.000000, 1432.000000)">
                <path d="M4.3,1.90633333 C2.71903333,1.90633333 1.43333333,3.19633333 1.43333333,4.77443333 L1.43333333,27.7063333 C1.43333333,29.2844333 2.71903333,30.5744333 4.3,30.5744333 L38.7,30.5744333 C40.2809667,30.5744333 41.5666667,29.2844333 41.5666667,27.7063333 L41.5666667,4.77443333 C41.5666667,3.19633333 40.2809667,1.90633333 38.7,1.90633333 L4.3,1.90633333 L4.3,1.90633333 Z M38.7,32.0063333 L4.3,32.0063333 C1.92926667,32.0063333 0,30.0713333 0,27.7063333 L0,4.77443333 C0,2.40943333 1.92926667,0.474433333 4.3,0.474433333 L38.7,0.474433333 C41.0707333,0.474433333 43,2.40943333 43,4.77443333 L43,27.7063333 C43,30.0713333 41.0707333,32.0063333 38.7,32.0063333 L38.7,32.0063333 Z" id="Fill-12293" sketch:type="MSShapeGroup"></path>
                <path d="M21.8425667,21.3136667 C20.0767,21.3136667 18.4255,20.5697667 17.1899667,19.2353333 L6.06873333,7.06776667 C5.80213333,6.77966667 5.82363333,6.321 6.1146,6.04866667 C6.40556667,5.7921 6.85993333,5.805 7.12796667,6.106 L18.2463333,18.2606667 C20.1612667,20.339 23.521,20.339 25.4388,18.2606667 L36.5385333,6.12176667 C36.8065667,5.82076667 37.2595,5.805 37.5519,6.07733333 C37.8428667,6.33533333 37.8643667,6.794 37.5963333,7.08066667 L26.4951667,19.221 C25.2596333,20.5697667 23.6084333,21.3136667 21.8425667,21.3136667" id="Fill-12294" sketch:type="MSShapeGroup"></path>
                <path d="M6.59906667,27.0197667 C6.40413333,27.0197667 6.21063333,26.9323333 6.06873333,26.789 C5.80213333,26.488 5.82363333,26.0436667 6.1146,25.7713333 L15.8928,16.8416667 C16.1866333,16.5707667 16.6381333,16.5994333 16.9061667,16.8846667 C17.1727667,17.1713333 17.1527,17.63 16.8603,17.9023333 L7.0821,26.832 C6.9445,26.9624333 6.77106667,27.0197667 6.59906667,27.0197667" id="Fill-12295" sketch:type="MSShapeGroup"></path>
                <path d="M37.0918,27.0197667 C36.9183667,27.0197667 36.7463667,26.9624333 36.6087667,26.832 L26.8262667,17.9023333 C26.5338667,17.63 26.5123667,17.1713333 26.7804,16.8846667 C27.047,16.5994333 27.5013667,16.5707667 27.7923333,16.8416667 L37.5748333,25.7713333 C37.8672333,26.0436667 37.8887333,26.488 37.6207,26.789 C37.4788,26.9323333 37.2853,27.0197667 37.0918,27.0197667" id="Fill-12296" sketch:type="MSShapeGroup"></path>
            </g>
        </g>
    </g>
</svg>

<svg width="43" height="33" viewBox="0 0 43 33" xmlns="http://www.w3.org/2000/svg"><title>Group</title><g fill="#000" fill-rule="evenodd"><path d="M4.3 1.906c-1.58 0-2.867 1.29-2.867 2.868v22.932c0 1.578 1.286 2.868 2.867 2.868h34.4c1.58 0 2.867-1.29 2.867-2.868V4.774c0-1.578-1.286-2.868-2.867-2.868H4.3zm34.4 30.1H4.3c-2.37 0-4.3-1.935-4.3-4.3V4.774C0 2.41 1.93.474 4.3.474h34.4c2.37 0 4.3 1.935 4.3 4.3v22.932c0 2.365-1.93 4.3-4.3 4.3z"/><path d="M21.843 21.314c-1.766 0-3.418-.744-4.653-2.08L6.07 7.07c-.268-.288-.246-.747.045-1.02.29-.256.745-.243 1.013.058L18.246 18.26c1.915 2.08 5.275 2.08 7.193 0l11.1-12.138c.267-.3.72-.317 1.012-.045.29.258.312.717.044 1.004l-11.1 12.14c-1.236 1.35-2.888 2.094-4.653 2.094"/><path d="M6.6 27.02c-.196 0-.39-.088-.53-.23-.268-.302-.246-.746.045-1.02l9.778-8.928c.294-.27.745-.243 1.013.043.267.286.247.745-.046 1.017l-9.778 8.93c-.138.13-.31.188-.483.188M37.092 27.02c-.174 0-.346-.058-.483-.188l-9.784-8.93c-.292-.272-.314-.73-.046-1.017.267-.286.72-.314 1.012-.043l9.783 8.93c.292.272.314.716.046 1.017-.14.142-.335.23-.528.23"/></g></svg>
